src/lib/packages/icons/src/assets/line/lemon.svg

<svg width="24" height="24" viewBox="0 0 24 24" fill="none" xmlns="http://www.w3.org/2000/svg">
<path d="M21.43 6.28C21.64 5.89 21.75 5.44 21.75 5C21.75 3.48 20.52 2.25 19 2.25C18.56 2.25 18.12 2.36001 17.72 2.57001C17.45 2.71001 17.04 2.85 16.62 2.72C13.21 1.64 9.04998 2.90001 6.02998 5.92001C3.02998 8.92001 1.75999 13.06 2.79999 16.46C2.93999 16.93 2.77998 17.35 2.61998 17.62C2.36998 18.04 2.23999 18.52 2.23999 19.01C2.23999 20.53 3.46999 21.76 4.98999 21.76C5.47999 21.76 5.95999 21.63 6.37999 21.38C6.64999 21.22 7.06998 21.06 7.53998 21.2C10.94 22.25 15.08 20.98 18.08 17.97C21.1 14.95 22.35 10.8 21.28 7.38C21.15 6.95001 21.28 6.54 21.43 6.28ZM19.85 7.84C20.76 10.72 19.65 14.29 17.02 16.91C14.4 19.53 10.85 20.64 7.97998 19.76C7.20998 19.52 6.36998 19.64 5.61998 20.08C5.42998 20.19 5.20999 20.25 4.98999 20.25C4.29999 20.25 3.73999 19.69 3.73999 19C3.73999 18.78 3.79999 18.56 3.90999 18.37C4.34999 17.62 4.45998 16.78 4.22998 16.01C3.34998 13.13 4.46999 9.59 7.07999 6.97C9.09999 4.95 11.67 3.82999 14.06 3.82999C14.78 3.82999 15.49 3.93001 16.16 4.14001C16.88 4.37001 17.68 4.28001 18.42 3.89001C18.6 3.80001 18.8 3.75 19 3.75C19.69 3.75 20.25 4.31 20.25 5C20.25 5.2 20.2 5.39999 20.11 5.57999C19.72 6.31999 19.63 7.12 19.86 7.84H19.85ZM10.01 16.5C10.01 17.05 9.55998 17.5 9.00998 17.5C8.45998 17.5 8.00998 17.05 8.00998 16.5C8.00998 15.95 8.44998 15.5 9.00998 15.5C9.55998 15.5 10.01 15.95 10.01 16.5ZM14.01 16.5C14.01 17.05 13.56 17.5 13.01 17.5C12.46 17.5 12.01 17.05 12.01 16.5C12.01 15.95 12.45 15.5 13.01 15.5C13.56 15.5 14.01 15.95 14.01 16.5ZM12.01 13.5C12.01 14.05 11.56 14.5 11.01 14.5C10.46 14.5 10.01 14.05 10.01 13.5C10.01 12.95 10.45 12.5 11.01 12.5C11.56 12.5 12.01 12.95 12.01 13.5Z" fill="currentColor"/>
</svg>

<svg xmlns="http://www.w3.org/2000/svg" width="24" height="24" fill="none"><path fill="currentColor" d="M21.43 6.28c.21-.39.32-.84.32-1.28 0-1.52-1.23-2.75-2.75-2.75-.44 0-.88.11-1.28.32-.27.14-.68.28-1.1.15-3.41-1.08-7.57.18-10.59 3.2-3 3-4.27 7.14-3.23 10.54.14.47-.02.89-.18 1.16a2.748 2.748 0 0 0 3.76 3.76c.27-.16.69-.32 1.16-.18 3.4 1.05 7.54-.22 10.54-3.23 3.02-3.02 4.27-7.17 3.2-10.59-.13-.43 0-.84.15-1.1Zm-1.58 1.56c.91 2.88-.2 6.45-2.83 9.07-2.62 2.62-6.17 3.73-9.04 2.85-.77-.24-1.61-.12-2.36.32a1.25 1.25 0 0 1-1.71-1.71c.44-.75.55-1.59.32-2.36-.88-2.88.24-6.42 2.85-9.04 2.02-2.02 4.59-3.14 6.98-3.14.72 0 1.43.1 2.1.31.72.23 1.52.14 2.26-.25a1.25 1.25 0 0 1 1.69 1.69c-.39.74-.48 1.54-.25 2.26h-.01Zm-9.84 8.66c0 .55-.45 1-1 1s-1-.45-1-1 .44-1 1-1c.55 0 1 .45 1 1Zm4 0c0 .55-.45 1-1 1s-1-.45-1-1 .44-1 1-1c.55 0 1 .45 1 1Zm-2-3c0 .55-.45 1-1 1s-1-.45-1-1 .44-1 1-1c.55 0 1 .45 1 1Z"/></svg>
